src/components/class-icon/images/Sorcerer.svg

<?xml version="1.0" encoding="UTF-8"?>
<svg width="42px" height="100px" viewBox="0 0 42 100" version="1.1" xmlns="http://www.w3.org/2000/svg" xmlns:xlink="http://www.w3.org/1999/xlink">
    <!-- Generator: Sketch 53.2 (72643) - https://sketchapp.com -->
    <title>ClassIcon/Sorcerer</title>
    <desc>Created with Sketch.</desc>
    <g id="ClassIcon/Sorcerer" stroke="none" stroke-width="1" fill="none" fill-rule="evenodd">
        <g fill="#00040C" fill-rule="nonzero" id="Shape">
            <path d="M20.71,0 C20.95,0 23.58,17.45 25.25,22.77 C26.55,26.9 27.82,31.05 29.17,35.18 C30.7118305,39.6146544 32.5115666,43.955391 34.56,48.18 C38.1346325,56.2678729 40.5226081,64.8295568 41.65,73.6 C42.65,80.6 39.11,89.44 34.29,94.39 C28.9833566,99.7279129 21.025939,101.429992 14,98.73 C7.21,96.07 3,89.18 1.24,82.36 C0.299231956,79.0162299 0.0139950714,75.5220781 0.4,72.07 C0.914533294,67.896046 1.76053907,63.7696779 2.93,59.73 C4.08903182,55.8521054 5.53296129,52.0651329 7.25,48.4 C9.28615404,44.3544154 11.0858454,40.19409 12.64,35.94 C14.6716722,30.1155978 16.2857591,24.1538357 17.47,18.1 C18,15 20.84,2.86 20.71,0 C20.98,0 20.83,2.59 20.71,0 M19.5,66.28 C19.36,68.62 17.79,68.14 16.59,71.18 C16.15,69.62 17.47,66.35 16.42,64.49 C16.0643921,65.7966077 15.4028192,66.9997791 14.49,68 C13.3151748,69.6360845 12.6758877,71.5958663 12.66,73.61 C12.7499325,74.7948216 13.0908054,75.9469719 13.66,76.99 C14.0557842,78.0777923 14.2292091,79.2339587 14.17,80.39 C13.79,79.39 13.23,78.94 11.82,78.91 C11,78.75 10.97,77.32 11.35,76.51 C10.19,76.75 10.12,79.51 10.21,80.12 C10.49,82.03 11.61,83.12 12.74,84.64 C13.74,85.92 14.25,87.4 15.74,88.21 C17.48,89.21 19.14,89.76 20.95,89.29 C21.37,89.18 21.43,89.71 23.05,89.77 C23.97,89.77 24.44,89.01 24.61,88 C26.2702681,87.5920242 27.8380129,86.8726261 29.23,85.88 C31.34,83.99 30.77,78.46 29.42,76.88 C29.86,78.94 28.27,78.82 28.89,80.2 C29.08,81.45 26.99,80.81 26.16,81.32 C25.38,82.16 25.59,82.71 25.05,83.66 C24.41,82.26 25.45,80.98 25.99,79.75 C26.7971602,78.3010389 27.1882187,76.6572091 27.12,75 C27.1022187,73.4882171 26.6050093,72.0210994 25.7,70.81 C24.8103995,69.6433387 24.3734532,68.1939557 24.47,66.73 C22.87,67.17 24.91,73.73 23.12,75.6 C21.49,73.88 22.86,68.82 22.77,67.24 C22.7456523,64.8507137 22.1888055,62.4969255 21.14,60.35 C20.5425876,59.2875448 20.0598726,58.1645619 19.7,57 C19.39,55.77 19.11,53.53 19.49,53 C18.06,55.07 18.65,58.77 19.09,60 C19.5336716,62.0856131 19.6717825,64.2246489 19.5,66.35"></path>
        </g>
    </g>
</svg>

<svg viewBox="0 0 42 100" xmlns="http://www.w3.org/2000/svg"><path d="M20.71 0c.24 0 2.87 17.45 4.54 22.77 1.3 4.13 2.57 8.28 3.92 12.41a120.48 120.48 0 0 0 5.39 13 91.85 91.85 0 0 1 7.09 25.42c1 7-2.54 15.84-7.36 20.79A19 19 0 0 1 14 98.73C7.21 96.07 3 89.18 1.24 82.36A26.94 26.94 0 0 1 .4 72.07a79.24 79.24 0 0 1 2.53-12.34A82.18 82.18 0 0 1 7.25 48.4a117.08 117.08 0 0 0 5.39-12.46 129.86 129.86 0 0 0 4.83-17.84C18 15 20.84 2.86 20.71 0c.27 0 .12 2.59 0 0M19.5 66.28c-.14 2.34-1.71 1.86-2.91 4.9-.44-1.56.88-4.83-.17-6.69A8.53 8.53 0 0 1 14.49 68a9.75 9.75 0 0 0-1.83 5.61 8.38 8.38 0 0 0 1 3.38 8.65 8.65 0 0 1 .51 3.4c-.38-1-.94-1.45-2.35-1.48-.82-.16-.85-1.59-.47-2.4-1.16.24-1.23 3-1.14 3.61.28 1.91 1.4 3 2.53 4.52 1 1.28 1.51 2.76 3 3.57 1.74 1 3.4 1.55 5.21 1.08.42-.11.48.42 2.1.48.92 0 1.39-.76 1.56-1.77a13.51 13.51 0 0 0 4.62-2.12c2.11-1.89 1.54-7.42.19-9 .44 2.06-1.15 1.94-.53 3.32.19 1.25-1.9.61-2.73 1.12-.78.84-.57 1.39-1.11 2.34-.64-1.4.4-2.68.94-3.91A9 9 0 0 0 27.12 75a7.14 7.14 0 0 0-1.42-4.19 6.07 6.07 0 0 1-1.23-4.08c-1.6.44.44 7-1.35 8.87-1.63-1.72-.26-6.78-.35-8.36a16.07 16.07 0 0 0-1.63-6.89A17.19 17.19 0 0 1 19.7 57c-.31-1.23-.59-3.47-.21-4-1.43 2.07-.84 5.77-.4 7a22 22 0 0 1 .41 6.35" fill="#00040C" fill-rule="nonzero"/></svg>
